X:393
T: Marinda
N: O'Farrell's Pocket Companion v.4 (Sky ed. p.168)
M: 2/4
L: 1/8
Q: 160
R: march
K: D
z| Adde| f>gfd| BgeA| d>edA|
Adde| f>gfd| Bgec| d3 :|
f/g/| a>bag| fdAF| a>baf| g2f2|
a>bag| fdAF| a>bag| g2f2|
.g.g.ge| .f.f.f.d| .g.g.ge| a>baf|
.g.g.ge| f/e/f/g/ fd| ef g/e/d/c/| d4-|d4 ||
